public/images/img_volume.svg

<svg fill="none" height="19" viewBox="0 0 24 19" width="24" xmlns="http://www.w3.org/2000/svg"><g fill="#fff"><path d="m3.89925 14.3551c.14482-.1448.34394-.2293.55513-.2293h19.15222c.35 0 .525.4224.2776.6698l-3.7834 3.7834c-.1448.1448-.3439.2293-.5551.2293h-19.152267c-.3499779 0-.524967-.4224-.277569-.6698z"/><path d="m3.89925.229296c.15085-.1448186.34998-.229296.55513-.229296h19.15222c.35 0 .525.422387.2776.669785l-3.7834 3.783385c-.1448.14482-.3439.22929-.5551.22929h-19.152267c-.3499779 0-.524967-.42238-.277569-.66978z"/><path d="m20.1008 7.24695c-.1448-.14482-.3439-.2293-.5551-.2293h-19.152267c-.3499779 0-.524967.42239-.277569.66978l3.783386 3.78337c.14482.1448.34394.2293.55513.2293h19.15222c.35 0 .525-.4224.2776-.6698z"/></g></svg>

<svg width="24" height="19" viewBox="0 0 24 19" fill="none" xmlns="http://www.w3.org/2000/svg">
<path d="M3.89925 14.3551C4.04407 14.2103 4.24319 14.1258 4.45438 14.1258H23.6066C23.9566 14.1258 24.1316 14.5482 23.8842 14.7956L20.1008 18.579C19.956 18.7238 19.7569 18.8083 19.5457 18.8083H0.393433C0.0434551 18.8083 -0.131534 18.3859 0.115864 18.1385L3.89925 14.3551Z" fill="white"/>
<path d="M3.89925 0.229296C4.0501 0.0844774 4.24923 0 4.45438 0H23.6066C23.9566 0 24.1316 0.422387 23.8842 0.669785L20.1008 4.45317C19.956 4.59799 19.7569 4.68246 19.5457 4.68246H0.393433C0.0434551 4.68246 -0.131534 4.26008 0.115864 4.01268L3.89925 0.229296Z" fill="white"/>
<path d="M20.1008 7.24695C19.956 7.10213 19.7569 7.01765 19.5457 7.01765H0.393433C0.0434551 7.01765 -0.131534 7.44004 0.115864 7.68743L3.89925 11.4708C4.04407 11.6156 4.24319 11.7001 4.45438 11.7001H23.6066C23.9566 11.7001 24.1316 11.2777 23.8842 11.0303L20.1008 7.24695Z" fill="white"/>
</svg>
